svg/fluentui-system-icons/ic_fluent_clipboard_error_16_filled.svg

<svg width="16" height="16" viewBox="0 0 16 16" fill="none" xmlns="http://www.w3.org/2000/svg">
<path d="M5.08535 2C5.29127 1.4174 5.84689 1 6.5 1H9.5C10.1531 1 10.7087 1.4174 10.9146 2H11.5C12.3284 2 13 2.67157 13 3.5V5.59971C12.2499 5.21628 11.4002 5 10.5 5C7.46243 5 5 7.46243 5 10.5C5 12.3602 5.92345 14.0046 7.33692 15H4.5C3.67157 15 3 14.3284 3 13.5V3.5C3 2.67157 3.67157 2 4.5 2H5.08535ZM6.5 2C6.22386 2 6 2.22386 6 2.5C6 2.77614 6.22386 3 6.5 3H9.5C9.77614 3 10 2.77614 10 2.5C10 2.22386 9.77614 2 9.5 2H6.5ZM15 10.5C15 12.9853 12.9853 15 10.5 15C8.01472 15 6 12.9853 6 10.5C6 8.01472 8.01472 6 10.5 6C12.9853 6 15 8.01472 15 10.5ZM10.5 8C10.2239 8 10 8.22386 10 8.5V10.5C10 10.7761 10.2239 11 10.5 11C10.7761 11 11 10.7761 11 10.5V8.5C11 8.22386 10.7761 8 10.5 8ZM10.5 13.125C10.8452 13.125 11.125 12.8452 11.125 12.5C11.125 12.1548 10.8452 11.875 10.5 11.875C10.1548 11.875 9.875 12.1548 9.875 12.5C9.875 12.8452 10.1548 13.125 10.5 13.125Z" fill="#212121"/>
</svg>

<svg xmlns="http://www.w3.org/2000/svg" width="16" height="16"><path d="M5.085 2A1.5 1.5 0 0 1 6.5 1h3a1.5 1.5 0 0 1 1.415 1h.585A1.5 1.5 0 0 1 13 3.5v2.1A5.5 5.5 0 0 0 7.337 15H4.5A1.5 1.5 0 0 1 3 13.5v-10A1.5 1.5 0 0 1 4.5 2h.585ZM6.5 2a.5.5 0 0 0 0 1h3a.5.5 0 0 0 0-1h-3Zm8.5 8.5a4.5 4.5 0 1 1-9 0 4.5 4.5 0 0 1 9 0ZM10.5 8a.5.5 0 0 0-.5.5v2a.5.5 0 0 0 1 0v-2a.5.5 0 0 0-.5-.5Zm0 5.125a.625.625 0 1 0 0-1.25.625.625 0 0 0 0 1.25Z"/></svg>
